usr/share/icons/biglinux-icons-material-dark/16/places/start-here.svg

<svg width="16" height="16" version="1.1" xmlns="http://www.w3.org/2000/svg">
 <defs>
  <style id="current-color-scheme" type="text/css">.ColorScheme-Text { color:#dedede; }</style>
 </defs>
 <path d="m4 1c-1.662 0-3 1.338-3 3v3.5h6.5v-6.5h-3.5zm4.5 0v6.5h6.5v-3.5c0-1.662-1.338-3-3-3h-3.5zm-7.5 7.5v3.5c0 1.662 1.338 3 3 3h3.5v-6.5h-6.5zm7.5 0v6.5h3.5c1.662 0 3-1.338 3-3v-3.5h-6.5z" class="ColorScheme-Text" fill="currentColor"/>
</svg>

<svg xmlns="http://www.w3.org/2000/svg" width="16" height="16">
<defs>
<style id="current-color-scheme" type="text/css">
.ColorScheme-Text{color:#dedede}
</style>
</defs>
<path fill="currentColor" d="M4 1C2.338 1 1 2.338 1 4v3.5h6.5V1zm4.5 0v6.5H15V4c0-1.662-1.338-3-3-3zM1 8.5V12c0 1.662 1.338 3 3 3h3.5V8.5zm7.5 0V15H12c1.662 0 3-1.338 3-3V8.5z" class="ColorScheme-Text"/>
</svg>
